32x32/places/folder-yellow-steam.svg

<svg xmlns="http://www.w3.org/2000/svg" width="32" height="32" version="1"><rect style="opacity:.2" width="28" height="18" x="2" y="11" rx="1.4" ry="1.4"/><path style="fill:#b58f1b" d="M2 22.6c0 .776.624 1.4 1.4 1.4h25.2c.776 0 1.4-.624 1.4-1.4V7.4c0-.776-.624-1.4-1.4-1.4H16c-2.1 0-2.8-3-4.9-3H3.4C2.624 3 2 3.624 2 4.4"/><rect style="opacity:.2" width="28" height="18" x="2" y="9" rx="1.4" ry="1.4"/><rect style="fill:#f4f4f7" width="24" height="11" x="4" y="8" rx="1.4" ry="1.4"/><rect style="fill:#e2b322" width="28" height="18" x="2" y="10" rx="1.4" ry="1.4"/><path style="opacity:.1;fill:#f4f4f7" d="M3.4 3C2.625 3 2 3.625 2 4.4v1C2 4.625 2.625 4 3.4 4h7.7c2.1 0 2.8 3 4.9 3h12.6c.775 0 1.4.625 1.4 1.4v-1c0-.775-.625-1.4-1.4-1.4H16c-2.1 0-2.8-3-4.9-3z"/><path style="fill:#4f3e0c" d="m8 20.056 3.008 1.737A3 3 0 1 0 17 22a3.089 3.089 0 0 0-.033-.408l3.638-2.598A3.5 3.5 0 0 0 24 15.5a3.5 3.5 0 1 0-7 .014l-2.322 3.568A2.98 2.98 0 0 0 14 19c-.453.001-.9.105-1.307.303L8 16.594M20.5 13a2.5 2.5 0 1 1 0 5 2.5 2.5 0 0 1 0-5zm0 1a1.5 1.5 0 1 0 .001 3.001A1.5 1.5 0 0 0 20.5 14zM14 20a2 2 0 1 1-1.959 2.389l.705.408c.72.415 1.633.171 2.049-.549a1.497 1.497 0 0 0-.549-2.049l-.338-.195A2.83 2.83 0 0 1 14 20z"/></svg>

<svg xmlns="http://www.w3.org/2000/svg" width="32" height="32" version="1">
 <rect style="opacity:0.2" width="28" height="18" x="2" y="11" rx="1.4" ry="1.4"/>
 <path style="fill:#b58f1b" d="M 2,22.6 C 2,23.376 2.6244,24 3.4,24 H 28.6 C 29.376,24 30,23.376 30,22.6 V 7.4 C 30,6.6244 29.376,6 28.6,6 H 16 C 13.9,6 13.2,3 11.1,3 H 3.4 C 2.6244,3 2,3.6244 2,4.4"/>
 <rect style="opacity:0.2" width="28" height="18" x="2" y="9" rx="1.4" ry="1.4"/>
 <rect style="fill:#f4f4f7" width="24" height="11" x="4" y="8" rx="1.4" ry="1.4"/>
 <rect style="fill:#e2b322" width="28" height="18" x="2" y="10" rx="1.4" ry="1.4"/>
 <path style="opacity:0.1;fill:#f4f4f7" d="M 3.4004,3 C 2.6248,3 2,3.6248 2,4.4004 V 5.4004 C 2,4.6248 2.6248,4 3.4004,4 H 11.1 C 13.2,4 13.9,7 16,7 H 28.6 C 29.375,7 30,7.6248 30,8.4004 V 7.4004 C 30,6.6248 29.375,6 28.6,6 H 16 C 13.9,6 13.2,3 11.1,3 Z"/>
 <path style="fill:#4f3e0c" d="m 8,20.056 3.008,1.737 C 11.003,21.862 11,21.931 11,22 c 0,1.657 1.343,3 3,3 1.657,0 3,-1.343 3,-3 -0.002,-0.137 -0.013,-0.273 -0.033,-0.408 l 3.638,-2.598 C 22.495,18.937 23.998,17.39 24,15.5 24,13.567 22.433,12 20.5,12 18.567,12 16.999,13.567 17,15.514 l -2.322,3.568 C 14.456,19.029 14.228,19.001 14,19 c -0.453,0.001 -0.9,0.105 -1.307,0.303 L 8,16.594 M 20.5,13 C 21.881,13 23,14.119 23,15.5 23,16.881 21.881,18 20.5,18 19.119,18 18,16.881 18,15.5 18,14.119 19.119,13 20.5,13 Z m 0,1 C 19.672,14 19,14.672 19,15.5 19,16.328 19.672,17 20.5,17 21.328,17 22,16.328 22,15.5 22,14.672 21.328,14 20.5,14 Z M 14,20 c 1.105,0 2,0.895 2,2 0,1.105 -0.895,2 -2,2 -0.954,-0.001 -1.774,-0.676 -1.959,-1.611 l 0.705,0.408 c 0.72,0.415 1.633,0.171 2.049,-0.549 0.415,-0.72 0.171,-1.633 -0.549,-2.049 L 13.908,20.004 C 13.939,20.002 13.969,20.001 14,20 Z"/>
</svg>
